public/assets/standards/sci-ai/transforming-icon-2.svg

<svg width="36" height="36" viewBox="0 0 36 36" fill="none" xmlns="http://www.w3.org/2000/svg">
<path d="M29.98 22.22V8.41L18.02 1.5L6.05005 8.41V22.22L18.02 29.13L29.98 22.22Z" fill="#A5C352"/>
<path d="M3.52002 6.94006L18.02 15.3201L32.52 6.94006" stroke="#006D68" stroke-width="1.52" stroke-linecap="round" stroke-linejoin="round"/>
<path d="M2.21001 9.48001C0.850011 8.69001 0.380011 6.95001 1.17001 5.58001C1.96001 4.22001 3.70001 3.75001 5.07001 4.54001C6.44001 5.33001 6.90001 7.07001 6.11001 8.44001C5.32001 9.80001 3.58001 10.27 2.21001 9.48001Z" fill="#006D68"/>
<path d="M33.82 9.48001C35.18 8.69001 35.65 6.95001 34.86 5.58001C34.07 4.22001 32.33 3.75001 30.96 4.54001C29.59 5.33001 29.13 7.07001 29.92 8.44001C30.71 9.80001 32.45 10.27 33.82 9.48001Z" fill="#006D68"/>
<path d="M18.02 31.6399V15.3199" stroke="#006D68" stroke-width="1.52" stroke-linecap="round" stroke-linejoin="round"/>
<path d="M20.87 31.4999C20.87 33.0699 19.59 34.3499 18.02 34.3499C16.45 34.3499 15.17 33.0699 15.17 31.4999C15.17 29.9299 16.45 28.6499 18.02 28.6499C19.59 28.6499 20.87 29.9299 20.87 31.4999Z" fill="#006D68"/>
<path d="M28.38 16.48C28.38 16.48 23.73 23.1 18 23.1C12.27 23.1 7.62 16.48 7.62 16.48C7.62 16.48 12.27 9.85999 18 9.85999C23.73 9.85999 28.38 16.48 28.38 16.48Z" fill="white"/>
<path d="M18 20.06C20.0103 20.06 21.64 18.4303 21.64 16.42C21.64 14.4097 20.0103 12.78 18 12.78C15.9897 12.78 14.36 14.4097 14.36 16.42C14.36 18.4303 15.9897 20.06 18 20.06Z" fill="#006D68"/>
</svg>

<svg xmlns="http://www.w3.org/2000/svg" width="36" height="36" fill="none" viewBox="0 0 36 36"><path fill="#a5c352" d="M29.98 22.22V8.41L18.02 1.5 6.05 8.41v13.81l11.97 6.91z"/><path stroke="#006d68" stroke-linecap="round" stroke-linejoin="round" stroke-width="1.52" d="m3.52 6.94 14.5 8.38 14.5-8.38"/><path fill="#006d68" d="M2.21 9.48a2.856 2.856 0 0 1-1.04-3.9 2.856 2.856 0 0 1 3.9-1.04c1.37.79 1.83 2.53 1.04 3.9a2.856 2.856 0 0 1-3.9 1.04m31.61 0a2.856 2.856 0 0 0 1.04-3.9 2.856 2.856 0 0 0-3.9-1.04 2.847 2.847 0 0 0-1.04 3.9 2.856 2.856 0 0 0 3.9 1.04"/><path stroke="#006d68" stroke-linecap="round" stroke-linejoin="round" stroke-width="1.52" d="M18.02 31.64V15.32"/><path fill="#006d68" d="M20.87 31.5c0 1.57-1.28 2.85-2.85 2.85s-2.85-1.28-2.85-2.85 1.28-2.85 2.85-2.85 2.85 1.28 2.85 2.85"/><path fill="#fff" d="M28.38 16.48S23.73 23.1 18 23.1 7.62 16.48 7.62 16.48 12.27 9.86 18 9.86s10.38 6.62 10.38 6.62"/><path fill="#006d68" d="M18 20.06a3.64 3.64 0 1 0 0-7.28 3.64 3.64 0 0 0 0 7.28"/></svg>
